X:1
T:James Gibb editions
T:Psalm 104 (Becker) - Schütz
%%score [ ( 1 2 ) ( 3 4 ) ]
L:1/8
Q:1/4=98
M:2/2
K:C
V:1 treble nm="Soprano Alto"
V:2 treble 
V:3 bass nm="Tenor Bass"
V:4 bass 
V:1
"^Cornelius Becker\n(1561-1604)""^Psalm 104, SWV 202""^Heinrich Schütz\n(1585-1672)" G2 G2 A2 B2 | %1
w: ~Herr, dich lob die|
 c2 c2 B4 | e2 e2 d2 c2 | c2 B2 c4 |[M:2/2] A2 A2 c2 d2 | B2 G2 A4 | B2 d2 c2 B2 | A2 A2 G4 | %8
w: See- le mein,|schön ge- schmückt trittst|du her- ein,|läßt uns sehn die|gro- ße Macht|dei- ner Herr- lich-|keit und Pracht,|
 E2 ^F2 G2 A2 | B2 ^c2 A4 | A2 B2 ^c2 d2 | e2 ^c2 d4 | e2 f2 g2 e2 | (d3 c B2) A2 | G8 |] %15
w: licht und glän- zend|ist dein Kleid,|wie ein Tep- pich|groß und weit|ist der Him- mel|aus\- * * ge-|breit.|
V:2
 D2 E2 ^F2 G2 | E2 ^F2 G4 | G2 G2 F2 G2 | A2 G2 G4 |[M:2/2] F2 F2 F2 F2 | D2 E2 ^F4 | G2 G2 C2 D2 | %7
 E2 D2 D4 | C2 A,2 E2 C2 | E2 E2 ^C4 | F2 D2 A2 F2 | A2 A2 ^F4 | E2 A2 G2 G2 | (G3 E G2) ^F2 | %14
 G8 |] %15
V:3
 B,2 B,2 D2 D2 | C2 A,2 D4 | C2 C2 A,2 E2 | D2 D2 C4 |[M:2/2] C2 C2 A,2 A,2 | B,2 B,2 D4 | %6
 D2 B,2 A,2 G,2 | G,2 ^F,2 G,4 | G,2 D2 B,2 A,2 | %9
"^2. Oben um die Festen her \nists gewölbt mit Wasser schwer, \nauf dem schönen Wagen dein \nin den Wolken fährst herein, \nwenn der Wind durchs Land herbläst, \nauf sein Fittichen du gehst \nund mit Macht dich hören läßt.\n\n3. Dein Geschöpf, die Engelein \nsind gemacht zu Winden rein, \nstets in deinem Dienst zu stahn, \nleuchten wie des Feuers Flamm.\nDurch dein Macht gegründet hast \ndes Erdbodens schwere Last, \ndaß er bleib ohn Unterlaß.\n\n4. Mit der Tiefen hast du, Herr, \nrings bekleid't die Erd umher, \nüber alle Berge zwar \ngehen die Wolken offenbar. \nDoch wenn du mit Ungestüm \nhören läßt des Donners Stimm, \nfahren sie plötzlich dahin." ^G,2 A,2 E,4 | %10
 C2 B,2 E2 D2 | %11
"^5. Hoch die Berge gehn herfür, \nin dem Tal sind schöne Flür,\nbreiten sich hinein ins Land, \njeder Ort hält seinen Stand,\ndu's recht und gut geschätzt, \njedem seine Grenz gesetzt, \nalso bleibets unverletzt.\n\n6. In Gründen und tiefen Tal \nQuellen, Brunnen überall, \nwenn denn um die Berg herum \nmanch Flüßlein zusammen kommt,\nwerden daraus Wasserström, \ndie mit Macht gen Tal eingehn \nund sich durch die Lande drehn.\n\n7. Hiervon trinken alle Tier, \ndie im Feld man treibet für, \nauch das Wild auf grüner Heid\nlöscht den Durst zu seiner Zeit, \nund die Vöglein mannigfalt, \nauf den Zweig'n im grünen Wald, \nsingen, daß die Luft erschallt.\n\n" ^C2 E2 D4 | %12
 G,2 D2 B,2"^8. Gnädiglich feuchtest du, Herr, \nBerg und Tal von oben her, \ndurch den Segen deiner Hand \nfruchtbar steht das ganze Land,\nLaub und Gras wächst für das Vieh, \nwas gesät wird spat und früh \nzu des Menschen Nutz ohn Müh.\n\n9. Aus der Erden gibst du Brot, \nwas man darf zur Leibesnot, \nschaffst den Wein zu seiner Zeit, \nder des Menschen Herz erfreut, \nÖl sein Schön bewahret eb'n,\nBrot dem Herzen Kraft muß geb'n, \nweil wirs ind in diesem Leb'n." C2 | %13
 B,3 C D2"^weil" D2 | D8 |] %15
V:4
 G,2 E,2 D,2 G,2 | A,2 A,2 G,4 | C,2 C,2 D,2 E,2 | F,2 G,2 C,4 |[M:2/2] F,2 F,2 F,2 D,2 | %5
 G,2 E,2 D,4 | G,2 G,,2 A,,2 B,,2 | C,2 D,2 G,,4 | C,2 D,2 E,2 F,2 | E,2 A,,2 A,,4 | %10
 F,2 G,2 A,2 _B,2 | A,2 A,,2 D,4 | C,2 D,2 E,2 C,2 | G,3 A, G,2 D,2 | G,8 |] %15

